Adwaita++/actions/22/draw-halfcircle2.svg

<svg height="22" viewBox="0 0 22 22" width="22" xmlns="http://www.w3.org/2000/svg">
  <path d="m4.0078125 1.0097656v1.1660156.1230469 11.4179689.117187 1.166016h1.1425781c3.7871 0 6.8574214-3.130941 6.8574214-6.9941406 0-3.8632-3.0703214-6.9960938-6.8574214-6.9960938-.0789-.02159998-1.1425781 0-1.1425781 0z" fill="#444" transform="translate(3 3)"/>
</svg>

<svg xmlns="http://www.w3.org/2000/svg" width="22" height="22" viewBox="0 0 22 22">
 <defs>
  <style id="current-color-scheme" type="text/css">
   .ColorScheme-Text { color:#444444; } .ColorScheme-Highlight { color:#4285f4; }
  </style>
 </defs>
 <path style="fill:currentColor" class="ColorScheme-Text" d="M 4.0078125 1.0097656 L 4.0078125 2.1757812 L 4.0078125 2.2988281 L 4.0078125 13.716797 L 4.0078125 13.833984 L 4.0078125 15 L 5.1503906 15 C 8.9374906 15 12.007812 11.869059 12.007812 8.0058594 C 12.007812 4.1426594 8.9374906 1.0097656 5.1503906 1.0097656 C 5.0714906 0.98816562 4.0078125 1.0097656 4.0078125 1.0097656 z" transform="translate(3 3)"/>
</svg>
